!!!OTL: Die Sch&auml;ferin und der Kuckuck (1-47), S. 118
!!!id: K1095
**kern
*clefG2
*k[f#c#]
*G:
{8d
=1
4g
8g
8g
8f#
8g
=2
4a
8a
4a}
=3
{8a
=4
4b
8b
8dd
8cc
8a
=5
4g}
4.r
=6
{8d
=7
4g
8g
8g
8f#
8g
=8
4a
8a
4a}
=9
{8a
=10
4b
8b
8dd
8cc
8a
=11
4g}
4.r
=12
{8dd
=13
4cc#
8a
8a
8b
8cc#
=14
4dd
8cc#
4dd}
=15
{8dd
=16
4cc#
8a
8a
8b
8cc#
=17
8ee
8dd
8cc#
4dd}
=18
{8dd
=19
4b
4.r
8dd
=20
4cc}
4.r
=21
{8dd
=22
4b
8dd
4b
8dd
=23
4b}
4.r
==
*-
!!!minrhy: 8
!!!meters: 6/8 ]  ZZ[8
!!!cut: Die Sch&auml;ferin und der Kuckuck (1-47), S. 118
!!!reg: Luxemburg
!!!trd: KINTZELE, Guillaume: An der Ucht, Bd. 1, Luxemburg 1926
!!!rhy1: X  X_XXXX  X_XX_
!!!rhy2: X  X_XXXX  X_0_.
!!!key: K1095  08  G 6/8 ]  ZZ[8
!!!mod: ACHTTONSKALA DUR ?]  AMBITUS[9
!!!kad: 21215543
!!!akz: 1122_351_1122_351_4#255_4#265_34_333_
!!!fot: 'a__b__a__b__c__cw_d__e__
!!!for: 'a__aw_a__aw_a__aw_b__c__
!!!fok: '/__^d_/__^d_V__V__\__\__
!! PHRAS[AUFTAKTIG]
!!!fkt: Scherzlied, ???
!!!bem: in der Quelle mit einer 2. Stimme versehen
!! KINTZELE
!! PR[22] 2K[10] 2G[12] 3K[5] 3G[5] 4A[7] 4Ü[0] 5A[0] 6K[0] 6G[0]
!! 7K[0] 7G[0] 8A[0] MEHR[0] SI[39] ABS[41] SR[22] SP[17]
!! ST[12] 2k[10] 2g[22] 3k[2] 3g[0] 4d[5] 4ü[0] 5d[0] 6k[0] 6g[0]
!! 7k[0] 7g[0] 8d[0] mehr[0] si[39] dm[0] sr[32] sp[7]
!! 1F[64] 2F[22] 3F[11] 4F[0] LF[0] 2P[2] 3P[0] 4P[0] TRI[0] DF[4] AB[45]
!! TF[0] U3K[0] U3[0] U4[0] U4Ü[0] U5[0] U6K[0] U6[0] U7K[0] U7[0]
!! N1[0] N2K[0] N2[0] N3K[0] N3[5] N4[2] N4Ü[2] N5[19] N6K[0] N6[19]
!!!n7k: 0] N7[17] O1[24] O2K[0] O2[7] O3K[0] O3[5] HÖ[0
!!!RNB: symbol: &auml;      = a umlaut  (UTF-8: Å„)
